packages/icons/raw/shadcn/vibrate.svg

<svg width="24" height="24" viewBox="0 0 24 24" fill="none" xmlns="http://www.w3.org/2000/svg">
<path d="M2 8L4 10L2 12L4 14L2 16" stroke="black" stroke-width="2" stroke-linecap="round" stroke-linejoin="round"/>
<path d="M22 8L20 10L22 12L20 14L22 16" stroke="black" stroke-width="2" stroke-linecap="round" stroke-linejoin="round"/>
<path d="M15 5H9C8.44772 5 8 5.44772 8 6V18C8 18.5523 8.44772 19 9 19H15C15.5523 19 16 18.5523 16 18V6C16 5.44772 15.5523 5 15 5Z" stroke="black" stroke-width="2" stroke-linecap="round" stroke-linejoin="round"/>
</svg>

<!-- @license lucide-static v1.23.0 - ISC -->
<svg
  class="lucide lucide-vibrate"
  xmlns="http://www.w3.org/2000/svg"
  width="24"
  height="24"
  viewBox="0 0 24 24"
  fill="none"
  stroke="currentColor"
  stroke-width="2"
  stroke-linecap="round"
  stroke-linejoin="round"
>
  <path d="m2 8 2 2-2 2 2 2-2 2" />
  <path d="m22 8-2 2 2 2-2 2 2 2" />
  <rect width="8" height="14" x="8" y="5" rx="1" />
</svg>
